public/cloud-icons/azure/data/integration-runtime.svg

<?xml version="1.0" encoding="UTF-8" standalone="no"?>
<!-- Generated by Microsoft Visio, SVG Export Integration Runtime.svg Page-1 -->

<svg
   xmlns:dc="http://purl.org/dc/elements/1.1/"
   xmlns:cc="http://creativecommons.org/ns#"
   xmlns:rdf="http://www.w3.org/1999/02/22-rdf-syntax-ns#"
   xmlns:svg="http://www.w3.org/2000/svg"
   xmlns="http://www.w3.org/2000/svg"
   xmlns:sodipodi="http://sodipodi.sourceforge.net/DTD/sodipodi-0.dtd"
   xmlns:inkscape="http://www.inkscape.org/namespaces/inkscape"
   width="56.694607"
   height="56.692902"
   viewBox="0 0 56.694605 56.692903"
   xml:space="preserve"
   class="st13"
   version="1.1"
   id="svg145"
   sodipodi:docname="Integration Runtime.svg"
   style="font-size:12px;overflow:visible;color-interpolation-filters:sRGB;fill:none;fill-rule:evenodd;stroke-linecap:square;stroke-miterlimit:3"
   inkscape:version="0.92.5 (2060ec1f9f, 2020-04-08)"><metadata
   id="metadata149"><rdf:RDF><cc:Work
       rdf:about=""><dc:format>image/svg+xml</dc:format><dc:type
         rdf:resource="http://purl.org/dc/dcmitype/StillImage" /></cc:Work></rdf:RDF></metadata><sodipodi:namedview
   pagecolor="#ffffff"
   bordercolor="#666666"
   borderopacity="1"
   objecttolerance="10"
   gridtolerance="10"
   guidetolerance="10"
   inkscape:pageopacity="0"
   inkscape:pageshadow="2"
   inkscape:window-width="640"
   inkscape:window-height="480"
   id="namedview147"
   showgrid="false"
   inkscape:zoom="2.4486917"
   inkscape:cx="28.346461"
   inkscape:cy="14.173204"
   inkscape:window-x="0"
   inkscape:window-y="0"
   inkscape:window-maximized="0"
   inkscape:current-layer="svg145" />
	<style
   type="text/css"
   id="style2">
	<![CDATA[
		.st1 {fill:none;stroke:none;stroke-linecap:butt;stroke-width:0.48}
		.st2 {fill:url(#grad0-7);stroke:none;stroke-linecap:butt;stroke-width:0.48}
		.st3 {fill:#003067;stroke:none;stroke-linecap:butt;stroke-width:0.48}
		.st4 {fill:#50e6ff;stroke:none;stroke-linecap:butt;stroke-width:0.48}
		.st5 {fill:url(#grad0-19);stroke:none;stroke-linecap:butt;stroke-width:0.48}
		.st6 {fill:url(#grad0-23);stroke:none;stroke-linecap:butt;stroke-width:0.48}
		.st7 {fill:#ffffff;stroke:none;stroke-linecap:butt;stroke-width:0.48}
		.st8 {fill:#ffffff}
		.st9 {stroke:none;stroke-linecap:butt;stroke-width:0.48}
		.st10 {fill:#212121;stroke:none;stroke-linecap:butt;stroke-width:0.48}
		.st11 {fill:#76bc2d;stroke:none;stroke-linecap:butt;stroke-width:0.48}
		.st12 {fill:#76bc2d}
		.st13 {fill:none;fill-rule:evenodd;font-size:12px;overflow:visible;stroke-linecap:square;stroke-miterlimit:3}
	]]>
	</style>

	<defs
   id="Patterns_And_Gradients">
		<linearGradient
   id="grad0-7"
   x1="0"
   y1="31.130509"
   x2="42.73356"
   y2="31.130509"
   gradientTransform="scale(0.76638378,1.3048293)"
   gradientUnits="userSpaceOnUse">
			<stop
   offset="0"
   stop-color="#949494"
   stop-opacity="1"
   id="stop4" />
			<stop
   offset="0.53"
   stop-color="#a2a2a2"
   stop-opacity="1"
   id="stop6" />
			<stop
   offset="1"
   stop-color="#b3b3b3"
   stop-opacity="1"
   id="stop8" />
		</linearGradient>
		<linearGradient
   id="grad0-19"
   x1="0"
   y1="72.893522"
   x2="41.813445"
   y2="72.893522"
   gradientTransform="scale(1.1900478,0.84030235)"
   gradientUnits="userSpaceOnUse">
			<stop
   offset="0"
   stop-color="#0078d4"
   stop-opacity="1"
   id="stop11" />
			<stop
   offset="0.16"
   stop-color="#1380da"
   stop-opacity="1"
   id="stop13" />
			<stop
   offset="0.53"
   stop-color="#3c91e5"
   stop-opacity="1"
   id="stop15" />
			<stop
   offset="0.82"
   stop-color="#559cec"
   stop-opacity="1"
   id="stop17" />
			<stop
   offset="1"
   stop-color="#5ea0ef"
   stop-opacity="1"
   id="stop19" />
		</linearGradient>
		<linearGradient
   id="grad0-23"
   x1="0"
   y1="74.8346"
   x2="21.5434"
   y2="74.8346"
   gradientUnits="userSpaceOnUse">
			<stop
   offset="0"
   stop-color="#5e9624"
   stop-opacity="1"
   id="stop22" />
			<stop
   offset="0.255"
   stop-color="#619c25"
   stop-opacity="1"
   id="stop24" />
			<stop
   offset="0.51"
   stop-color="#76bc2d"
   stop-opacity="1"
   id="stop26" />
			<stop
   offset="0.91"
   stop-color="#86d633"
   stop-opacity="1"
   id="stop28" />
			<stop
   offset="1"
   stop-color="#86d633"
   stop-opacity="1"
   id="stop30" />
		</linearGradient>
	</defs>
	<g
   id="g143"
   transform="translate(-5.66929,-5.6693014)">
		<title
   id="title34">Page-1</title>
		<g
   id="group20649-1"
   transform="translate(5.66929,-34.0157)">
			<title
   id="title36">Integration Runtime.20649</title>
			<g
   id="shape20650-2">
				<title
   id="title38">Sheet.20650</title>
				<rect
   x="0"
   y="39.685001"
   width="56.692902"
   height="56.692902"
   class="st1"
   id="rect40"
   style="fill:none;stroke:none;stroke-width:0.47999999;stroke-linecap:butt" />
			</g>
			<g
   id="shape20651-4"
   transform="translate(23.9443,-0.933732)">
				<title
   id="title43">Sheet.20651</title>
				<path
   d="m 0,42.52 a 1.90091,1.90091 0 0 1 1.9,-1.9 h 29.01 a 1.86633,1.86633 0 0 1 1.84,1.9 v 51.96 a 1.90091,1.90091 0 0 1 -1.9,1.9 H 1.9 A 1.9338,1.9338 0 0 1 0,94.48 Z"
   class="st2"
   id="path45"
   inkscape:connector-curvature="0"
   style="fill:url(#grad0-7);stroke:none;stroke-width:0.47999999;stroke-linecap:butt" />
			</g>
			<g
   id="shape20652-8"
   transform="translate(28.3465,-33.582)">
				<title
   id="title48">Sheet.20652</title>
				<path
   d="M 20.01,96.38 H 3.67 c -0.04,0 -0.07,0 -0.1,0 A 3.56769,3.56769 0 0 1 0,92.81 c 0,-0.02 0,-0.05 0,-0.07 a 3.56825,3.56825 0 0 1 3.67,-3.47 h 16.34 a 3.555,3.555 0 0 1 0,7.11 z"
   class="st3"
   id="path50"
   inkscape:connector-curvature="0"
   style="fill:#003067;stroke:none;stroke-width:0.47999999;stroke-linecap:butt" />
			</g>
			<g
   id="shape20653-10"
   transform="translate(28.3465,-44.1536)">
				<title
   id="title53">Sheet.20653</title>
				<path
   d="M 20.01,96.38 H 3.67 3.6 A 3.56825,3.56825 0 0 1 0,92.84 c 0,-0.03 0,-0.06 0,-0.1 a 3.56825,3.56825 0 0 1 3.67,-3.47 h 16.34 a 3.555,3.555 0 0 1 0,7.11 z"
   class="st3"
   id="path55"
   inkscape:connector-curvature="0"
   style="fill:#003067;stroke:none;stroke-width:0.47999999;stroke-linecap:butt" />
			</g>
			<g
   id="shape20654-12"
   transform="translate(45.7546,-45.2874)">
				<title
   id="title58">Sheet.20654</title>
				<circle
   cx="2.4009399"
   cy="93.976997"
   class="st4"
   id="ellipse60"
   r="2.4009399"
   style="fill:#50e6ff;stroke:none;stroke-width:0.47999999;stroke-linecap:butt" />
			</g>
			<g
   id="shape20655-14"
   transform="translate(45.7546,-34.7494)">
				<title
   id="title63">Sheet.20655</title>
				<circle
   cx="2.4009399"
   cy="93.976997"
   class="st4"
   id="ellipse65"
   r="2.4009399"
   style="fill:#50e6ff;stroke:none;stroke-width:0.47999999;stroke-linecap:butt" />
			</g>
			<g
   id="shape20656-16"
   transform="translate(0,-0.733606)">
				<title
   id="title68">Sheet.20656</title>
				<path
   d="M 11.11,96.38 H 35.75 A 13.5394,13.5394 -180 0 0 49.76,83.37 13.3393,13.3393 -180 0 0 38.02,70.53 14.4062,14.4062 -180 0 0 24.21,61.26 14.0723,14.0723 -180 0 0 9.7,74.6 11.2054,11.2054 -180 0 0 0,85.34 11.3051,11.3051 -180 0 0 11.11,96.38 Z"
   class="st5"
   id="path70"
   inkscape:connector-curvature="0"
   style="fill:url(#grad0-19);stroke:none;stroke-width:0.47999999;stroke-linecap:butt" />
			</g>
			<g
   id="shape20657-20"
   transform="translate(35.1496,-0.993827)">
				<title
   id="title73">Sheet.20657</title>
				<circle
   cx="10.7717"
   cy="85.6063"
   class="st6"
   id="ellipse75"
   r="10.7717"
   style="fill:url(#grad0-23);stroke:none;stroke-width:0.47999999;stroke-linecap:butt" />
			</g>
			<g
   id="shape20658-24"
   transform="translate(37.7274,-11.0081)">
				<title
   id="title78">Sheet.20658</title>
				<rect
   x="0"
   y="94.863098"
   width="2.0392399"
   height="1.51483"
   class="st7"
   id="rect80"
   style="fill:#ffffff;stroke:none;stroke-width:0.47999999;stroke-linecap:butt" />
			</g>
			<g
   id="shape20659-26"
   transform="translate(52.0764,-11.0081)">
				<title
   id="title83">Sheet.20659</title>
				<rect
   x="0"
   y="94.863098"
   width="2.0392399"
   height="1.51483"
   class="st7"
   id="rect85"
   style="fill:#ffffff;stroke:none;stroke-width:0.47999999;stroke-linecap:butt" />
			</g>
			<g
   id="shape20660-28"
   transform="translate(39.7474,-7.14728)">
				<title
   id="title88">Sheet.20660</title>
				<path
   d="M 6.69,96.33 V 93.12 H 3.4 V 87.19 L 1.52,87.2 A 1.53071,1.53071 -180 0 0 0,88.74 l 0.04,6.12 a 1.53071,1.53071 -180 0 0 1.53,1.52 h 0.01 z"
   class="st8"
   id="path90"
   inkscape:connector-curvature="0"
   style="fill:#ffffff" />
				<path
   d="M 6.69,96.33 V 93.12 H 3.4 V 87.19 L 1.52,87.2 A 1.53071,1.53071 -180 0 0 0,88.74 l 0.04,6.12 a 1.53071,1.53071 -180 0 0 1.53,1.52 h 0.01"
   class="st9"
   id="path92"
   inkscape:connector-curvature="0"
   style="stroke:none;stroke-width:0.47999999;stroke-linecap:butt" />
			</g>
			<g
   id="shape20661-31"
   transform="translate(45.504,-7.1932)">
				<title
   id="title95">Sheet.20661</title>
				<path
   d="m 0,87.23 v 3.57 h 3.3 v 5.58 L 5.07,96.37 A 1.53071,1.53071 -180 0 0 6.59,94.83 L 6.55,88.71 A 1.53071,1.53071 -180 0 0 5.02,87.19 H 5.01 Z"
   class="st8"
   id="path97"
   inkscape:connector-curvature="0"
   style="fill:#ffffff" />
				<path
   d="m 0,87.23 v 3.57 h 3.3 v 5.58 L 5.07,96.37 A 1.53071,1.53071 -180 0 0 6.59,94.83 L 6.55,88.71 A 1.53071,1.53071 -180 0 0 5.02,87.19 H 5.01"
   class="st9"
   id="path99"
   inkscape:connector-curvature="0"
   style="stroke:none;stroke-width:0.47999999;stroke-linecap:butt" />
			</g>
			<g
   id="group20662-34"
   transform="translate(32.514,-1.71609)">
				<title
   id="title102">Sheet.20662</title>
				<g
   id="shape20663-35">
					<title
   id="title104">Sheet.20663</title>
					<circle
   cx="11.2059"
   cy="85.171997"
   class="st7"
   id="ellipse106"
   r="11.2059"
   style="fill:#ffffff;stroke:none;stroke-width:0.47999999;stroke-linecap:butt" />
				</g>
				<g
   id="shape20664-37"
   transform="translate(1.70079,-2.07893)">
					<title
   id="title109">Sheet.20664</title>
					<path
   d="M 9.51,77.75 A 9.50513,9.50513 0 1 1 0,87.25 9.50457,9.50457 0 0 1 9.51,77.75 Z m 0,-3.41 A 12.9067,12.9067 -180 1 0 22.41,87.25 12.9209,12.9209 -180 0 0 9.51,74.34 Z"
   class="st10"
   id="path111"
   inkscape:connector-curvature="0"
   style="fill:#212121;stroke:none;stroke-width:0.47999999;stroke-linecap:butt" />
				</g>
			</g>
			<g
   id="group20665-39"
   transform="translate(35.6984,-8.2165)">
				<title
   id="title115">Sheet.20665</title>
				<g
   id="shape20666-40"
   transform="translate(0,-3.87269)">
					<title
   id="title117">Sheet.20666</title>
					<rect
   x="0"
   y="94.858597"
   width="2.04491"
   height="1.51937"
   class="st11"
   id="rect119"
   style="fill:#76bc2d;stroke:none;stroke-width:0.47999999;stroke-linecap:butt" />
				</g>
				<g
   id="shape20667-42"
   transform="translate(14.3887,-3.87269)">
					<title
   id="title122">Sheet.20667</title>
					<rect
   x="0"
   y="94.858597"
   width="2.04491"
   height="1.51937"
   class="st11"
   id="rect124"
   style="fill:#76bc2d;stroke:none;stroke-width:0.47999999;stroke-linecap:butt" />
				</g>
				<g
   id="shape20668-44"
   transform="translate(2.0245)">
					<title
   id="title127">Sheet.20668</title>
					<path
   d="M 6.71,96.33 V 93.11 H 3.4 V 87.16 L 1.52,87.18 A 1.53071,1.53071 -180 0 0 0,88.72 l 0.04,6.13 a 1.53468,1.53468 -180 0 0 1.53,1.53 h 0.01 z"
   class="st12"
   id="path129"
   inkscape:connector-curvature="0"
   style="fill:#76bc2d" />
					<path
   d="M 6.71,96.33 V 93.11 H 3.4 V 87.16 L 1.52,87.18 A 1.53071,1.53071 -180 0 0 0,88.72 l 0.04,6.13 a 1.53468,1.53468 -180 0 0 1.53,1.53 h 0.01"
   class="st9"
   id="path131"
   inkscape:connector-curvature="0"
   style="stroke:none;stroke-width:0.47999999;stroke-linecap:butt" />
				</g>
				<g
   id="shape20669-47"
   transform="translate(7.79868,-0.0493228)">
					<title
   id="title134">Sheet.20669</title>
					<path
   d="m 0,87.21 v 3.58 h 3.31 v 5.59 L 5.09,96.37 A 1.53071,1.53071 -180 0 0 6.61,94.82 L 6.57,88.69 A 1.53524,1.53524 -180 0 0 5.04,87.17 H 5.03 Z"
   class="st12"
   id="path136"
   inkscape:connector-curvature="0"
   style="fill:#76bc2d" />
					<path
   d="m 0,87.21 v 3.58 h 3.31 v 5.59 L 5.09,96.37 A 1.53071,1.53071 -180 0 0 6.61,94.82 L 6.57,88.69 A 1.53524,1.53524 -180 0 0 5.04,87.17 H 5.03"
   class="st9"
   id="path138"
   inkscape:connector-curvature="0"
   style="stroke:none;stroke-width:0.47999999;stroke-linecap:butt" />
				</g>
			</g>
		</g>
	</g>
</svg>

<svg xmlns="http://www.w3.org/2000/svg" xml:space="preserve" width="56.695" height="56.693" style="font-size:12px;overflow:visible;color-interpolation-filters:sRGB;fill-rule:evenodd;stroke-linecap:square;stroke-miterlimit:3" viewBox="0 0 56.695 56.693"><defs><linearGradient id="a" x1="0" x2="42.734" y1="31.131" y2="31.131" gradientTransform="scale(.76638 1.30483)" gradientUnits="userSpaceOnUse"><stop offset="0" stop-color="#949494"/><stop offset=".53" stop-color="#a2a2a2"/><stop offset="1" stop-color="#b3b3b3"/></linearGradient><linearGradient id="b" x1="0" x2="41.813" y1="72.894" y2="72.894" gradientTransform="scale(1.19005 .8403)" gradientUnits="userSpaceOnUse"><stop offset="0" stop-color="#0078d4"/><stop offset=".16" stop-color="#1380da"/><stop offset=".53" stop-color="#3c91e5"/><stop offset=".82" stop-color="#559cec"/><stop offset="1" stop-color="#5ea0ef"/></linearGradient><linearGradient id="c" x1="0" x2="21.543" y1="74.835" y2="74.835" gradientUnits="userSpaceOnUse"><stop offset="0" stop-color="#5e9624"/><stop offset=".255" stop-color="#619c25"/><stop offset=".51" stop-color="#76bc2d"/><stop offset=".91" stop-color="#86d633"/><stop offset="1" stop-color="#86d633"/></linearGradient></defs><g transform="translate(-5.67 -5.67)"><title>Page-1</title><g transform="translate(5.67 -34.016)"><title>Integration Runtime.20649</title><title>Sheet.20650</title><path d="M0 39.685h56.693v56.693H0z" style="fill:none;stroke:none;stroke-width:.47999999;stroke-linecap:butt"/><g transform="translate(23.944 -.934)"><title>Sheet.20651</title><path d="M0 42.52a1.9 1.9 0 0 1 1.9-1.9h29.01a1.866 1.866 0 0 1 1.84 1.9v51.96a1.9 1.9 0 0 1-1.9 1.9H1.9a1.934 1.934 0 0 1-1.9-1.9Z" style="fill:url(#a);stroke:none;stroke-width:.47999999;stroke-linecap:butt"/></g><g transform="translate(28.346 -33.582)"><title>Sheet.20652</title><path d="M20.01 96.38H3.57A3.57 3.57 0 0 1 0 92.81v-.07a3.57 3.57 0 0 1 3.67-3.47h16.34a3.555 3.555 0 0 1 0 7.11" style="fill:#003067;stroke:none;stroke-width:.47999999;stroke-linecap:butt"/></g><g transform="translate(28.346 -44.154)"><title>Sheet.20653</title><path d="M20.01 96.38H3.6A3.57 3.57 0 0 1 0 92.84v-.1a3.57 3.57 0 0 1 3.67-3.47h16.34a3.555 3.555 0 0 1 0 7.11" style="fill:#003067;stroke:none;stroke-width:.47999999;stroke-linecap:butt"/></g><g transform="translate(45.755 -45.287)"><title>Sheet.20654</title><circle cx="2.401" cy="93.977" r="2.401" style="fill:#50e6ff;stroke:none;stroke-width:.47999999;stroke-linecap:butt"/></g><g transform="translate(45.755 -34.75)"><title>Sheet.20655</title><circle cx="2.401" cy="93.977" r="2.401" style="fill:#50e6ff;stroke:none;stroke-width:.47999999;stroke-linecap:butt"/></g><g transform="translate(0 -.734)"><title>Sheet.20656</title><path d="M11.11 96.38h24.64a13.54 13.54-180 0 0 14.01-13.01 13.34 13.34-180 0 0-11.74-12.84 14.41 14.41-180 0 0-13.81-9.27A14.07 14.07-180 0 0 9.7 74.6 11.205 11.205-180 0 0 0 85.34a11.305 11.305-180 0 0 11.11 11.04" style="fill:url(#b);stroke:none;stroke-width:.47999999;stroke-linecap:butt"/></g><g transform="translate(35.15 -.994)"><title>Sheet.20657</title><circle cx="10.772" cy="85.606" r="10.772" style="fill:url(#c);stroke:none;stroke-width:.47999999;stroke-linecap:butt"/></g><g transform="translate(37.727 -11.008)"><title>Sheet.20658</title><path d="M0 94.863h2.039v1.515H0z" style="fill:#fff;stroke:none;stroke-width:.47999999;stroke-linecap:butt"/></g><g transform="translate(52.076 -11.008)"><title>Sheet.20659</title><path d="M0 94.863h2.039v1.515H0z" style="fill:#fff;stroke:none;stroke-width:.47999999;stroke-linecap:butt"/></g><g transform="translate(39.747 -7.147)"><title>Sheet.20660</title><path d="M6.69 96.33v-3.21H3.4v-5.93l-1.88.01A1.53 1.53-180 0 0 0 88.74l.04 6.12a1.53 1.53-180 0 0 1.53 1.52h.01z" style="fill:#fff"/><path d="M6.69 96.33v-3.21H3.4v-5.93l-1.88.01A1.53 1.53-180 0 0 0 88.74l.04 6.12a1.53 1.53-180 0 0 1.53 1.52h.01" style="stroke:none;stroke-width:.47999999;stroke-linecap:butt"/></g><g transform="translate(45.504 -7.193)"><title>Sheet.20661</title><path d="M0 87.23v3.57h3.3v5.58l1.77-.01a1.53 1.53-180 0 0 1.52-1.54l-.04-6.12a1.53 1.53-180 0 0-1.53-1.52h-.01Z" style="fill:#fff"/><path d="M0 87.23v3.57h3.3v5.58l1.77-.01a1.53 1.53-180 0 0 1.52-1.54l-.04-6.12a1.53 1.53-180 0 0-1.53-1.52h-.01" style="stroke:none;stroke-width:.47999999;stroke-linecap:butt"/></g><g transform="translate(32.514 -1.716)"><title>Sheet.20662</title><title>Sheet.20663</title><circle cx="11.206" cy="85.172" r="11.206" style="fill:#fff;stroke:none;stroke-width:.47999999;stroke-linecap:butt"/><g transform="translate(1.7 -2.079)"><title>Sheet.20664</title><path d="M9.51 77.75A9.505 9.505 0 1 1 0 87.25a9.505 9.505 0 0 1 9.51-9.5m0-3.41a12.907 12.907-180 1 0 12.9 12.91 12.92 12.92-180 0 0-12.9-12.91" style="fill:#212121;stroke:none;stroke-width:.47999999;stroke-linecap:butt"/></g></g><g transform="translate(35.698 -8.216)"><title>Sheet.20665</title><g transform="translate(0 -3.873)"><title>Sheet.20666</title><path d="M0 94.859h2.045v1.519H0z" style="fill:#76bc2d;stroke:none;stroke-width:.47999999;stroke-linecap:butt"/></g><g transform="translate(14.389 -3.873)"><title>Sheet.20667</title><path d="M0 94.859h2.045v1.519H0z" style="fill:#76bc2d;stroke:none;stroke-width:.47999999;stroke-linecap:butt"/></g><g transform="translate(2.025)"><title>Sheet.20668</title><path d="M6.71 96.33v-3.22H3.4v-5.95l-1.88.02A1.53 1.53-180 0 0 0 88.72l.04 6.13a1.535 1.535-180 0 0 1.53 1.53h.01z" style="fill:#76bc2d"/><path d="M6.71 96.33v-3.22H3.4v-5.95l-1.88.02A1.53 1.53-180 0 0 0 88.72l.04 6.13a1.535 1.535-180 0 0 1.53 1.53h.01" style="stroke:none;stroke-width:.47999999;stroke-linecap:butt"/></g><g transform="translate(7.799 -.05)"><title>Sheet.20669</title><path d="M0 87.21v3.58h3.31v5.59l1.78-.01a1.53 1.53-180 0 0 1.52-1.55l-.04-6.13a1.535 1.535-180 0 0-1.53-1.52h-.01Z" style="fill:#76bc2d"/><path d="M0 87.21v3.58h3.31v5.59l1.78-.01a1.53 1.53-180 0 0 1.52-1.55l-.04-6.13a1.535 1.535-180 0 0-1.53-1.52h-.01" style="stroke:none;stroke-width:.47999999;stroke-linecap:butt"/></g></g></g></g></svg>
